components/ui-node-icon/src/byExample/byExample.small.svg

<svg width="16" height="16" viewBox="0 0 16 16" fill="none" xmlns="http://www.w3.org/2000/svg">
  <path fill-rule="evenodd" clip-rule="evenodd" d="M2.97299 7.51224L7.94075 1.83482C8.96706 0.6619 10.8797 1.63823 10.5318 3.15745L9.88074 5.99999H11.7929C13.1293 5.99999 13.7985 7.61572 12.8535 8.56066L7.13726 14.2769C6.03009 15.3841 4.18013 14.2675 4.6439 12.772L5.59903 13.0682C5.44444 13.5667 6.06109 13.9389 6.43015 13.5698L12.1464 7.85355C12.4614 7.53857 12.2383 6.99999 11.7929 6.99999H9.65171H8.62582L8.85485 5.99999L9.55699 2.9342C9.67297 2.4278 9.03543 2.10235 8.69332 2.49333L3.72557 8.17074C3.44269 8.49403 3.67228 8.99999 4.10186 8.99999H5.81361H6.86058L6.55048 9.99999L5.59903 13.0682L4.6439 12.772L5.5035 9.99999H4.10186C2.81312 9.99999 2.12435 8.48211 2.97299 7.51224Z" fill="currentColor"/>
</svg>

<svg xmlns="http://www.w3.org/2000/svg" width="16" height="16" fill="none" viewBox="0 0 16 16">
  <path fill="currentColor" fill-rule="evenodd" d="m2.973 7.512 4.968-5.677c1.026-1.173 2.939-.197 2.59 1.322L9.882 6h1.912c1.336 0 2.006 1.616 1.06 2.56l-5.716 5.717c-1.107 1.107-2.957-.01-2.493-1.505l.955.296c-.155.499.462.87.831.502l5.716-5.716A.5.5 0 0 0 11.793 7H8.626l.229-1 .702-3.066c.116-.506-.522-.832-.864-.44L3.726 8.17A.5.5 0 0 0 4.102 9H6.86l-.31 1-.952 3.068-.955-.296.86-2.772H4.101c-1.289 0-1.978-1.518-1.129-2.488Z" clip-rule="evenodd"/>
</svg>
